icons/nixos/nixos-original.svg

<svg viewBox="0 0 128 128" xmlns="http://www.w3.org/2000/svg">
<path fill-rule="evenodd" clip-rule="evenodd" d="M50.7322 43.7711L20.5252 96.4285L13.4726 84.3951L21.6136 70.2924L5.44572 70.2496L2 64.2367L5.51863 58.0866L28.5319 58.1597L36.8028 43.8075L50.7322 43.7711Z" fill="#7EBAE4"/>
<path fill-rule="evenodd" clip-rule="evenodd" d="M53.0496 85.8647L113.459 85.8677L106.632 98.0322L90.4273 97.987L98.4745 112.102L95.0239 118.112L87.9732 118.12L76.5295 98.0227L60.0457 97.989L53.0496 85.8647Z" fill="#7EBAE4"/>
<path fill-rule="evenodd" clip-rule="evenodd" d="M88.2098 62.7915L58.0079 10.1311L71.8875 10L79.9507 24.1479L88.0714 10.0756L94.9677 10.0783L98.4998 16.2206L86.9302 36.2449L95.1432 50.6307L88.2098 62.7915Z" fill="#7EBAE4"/>
<path fill-rule="evenodd" clip-rule="evenodd" d="M39.8312 65.4625L70.0331 118.123L56.1535 118.254L48.0903 104.106L39.9695 118.178L33.0733 118.176L29.5412 112.033L41.1107 92.009L32.8978 77.6232L39.8312 65.4625Z" fill="#5277C3"/>
<path fill-rule="evenodd" clip-rule="evenodd" d="M74.911 42.2562L14.5021 42.2532L21.3291 30.0887L37.5333 30.1339L29.4861 16.0188L32.9367 10.0087L39.9874 10.0009L51.4311 30.0983L67.9149 30.132L74.911 42.2562Z" fill="#5277C3"/>
<path fill-rule="evenodd" clip-rule="evenodd" d="M77.2677 84.4716L107.475 31.8142L114.527 43.8477L106.386 57.9504L122.554 57.9931L126 64.0061L122.481 70.1562L99.4681 70.083L91.1972 84.4352L77.2677 84.4716Z" fill="#5277C3"/>
</svg>

<svg xmlns="http://www.w3.org/2000/svg" viewBox="0 0 128 128"><path fill="#7EBAE4" d="M50.732 43.771 20.525 96.428l-7.052-12.033 8.14-14.103-16.167-.042L2 64.237l3.519-6.15 23.013.073 8.27-14.352 13.93-.037zm2.318 42.094 60.409.003-6.827 12.164-16.205-.045 8.047 14.115-3.45 6.01-7.05.008-11.445-20.097-16.483-.034-6.996-12.124zm35.16-23.074-30.202-52.66L71.888 10l8.063 14.148 8.12-14.072 6.897.002 3.532 6.143-11.57 20.024 8.213 14.386-6.933 12.16z" clip-rule="evenodd" fill-rule="evenodd"></path><path fill="#5277C3" d="m39.831 65.463 30.202 52.66-13.88.131-8.063-14.148-8.12 14.072-6.897-.002-3.532-6.143 11.57-20.024-8.213-14.386 6.933-12.16zm35.08-23.207-60.409-.003L21.33 30.09l16.204.045-8.047-14.115 3.45-6.01 7.051-.01 11.444 20.097 16.484.034 6.996 12.124zm2.357 42.216 30.207-52.658 7.052 12.034-8.141 14.102 16.168.043L126 64.006l-3.519 6.15-23.013-.073-8.27 14.352-13.93.037z" clip-rule="evenodd" fill-rule="evenodd"></path></svg>
